X:3865
L:1/8
M:6/8
K:G
 D2 G G2 A | BAB d2 B | A2 D FED | A2 D FED | D2 G G2 A | BAB d2 B | A2 D FED |1 G3 G2 E :|2 
 G3 GBd |: g2 f efg | f2 e d2 B | c2 B A2 B | c2 d e2 f | g2 f efg | f2 e d2 B | c2 A F2 A |1 
 G3 GBd :|2 G3 GFE |:"^variations" G2 F G2 A | BAB d2 B | A2 D FED | A2 D FED | G2 F G2 A | 
 BAB d2 B | A2 D FED |1 G3 G2 E :|2 G3 G3 |: gfg efg | f2 e d2 B | c2 B A2 B | c2 d e2 f | 
 gfg efg | f2 e d2 B | c2 A F2 A | G3 G3 :|

